X: 8
T:Rodney, Headington 1
M:2/2
L:1/8
A:Headington
P:A(A2B2)4C
K:A
Q:364
P:A
A2Bc d2cB|ABcd e2cB|efed c2A2|BABc A2e2||
P:B
e2af g2e2|e2af g2e2|e2ag fedc|dfed c2B2||
P:C
A2Bc d2cB|ABcd e2cB|efed c2A2|BABc A4  ||
